X: 14
T: Earl's Chair, The
C: Pakie Moloney
Z: UPipes & harp
S: https://thesession.org/tunes/221#setting47983
R: reel
M: 4/4
L: 1/8
K: Dmaj
FA|:B2 dB BAFA|B2 dB BAFB|AF F2 DF F2|AFdB ADFA|
B2 dB BAFA|B2 dB BAFB|AFAB defd|1 edef d3A:|2 edef d3z||
|:e2 ef d2 Bd|edef dB A2|e3fd2 de|fedB AFEA|
e2 efd B3|g B3 defg|afbf afeg|fedB ADFA:|

